!!!CDT:
!!!PTL: Il secondo libro de madrigali a cinque voci
!!!PPP: Venice
!!!PPR: Vincenzi & Amadino
!!!PDT: 1584
!!!PUB-format:
!!!RISM: M 1502
!!!rime: 47
!!!AGN: Madrigal
!!!SCT: Trm0047f
!!!SCA: Trm0047f
!!!original-voices: 5
!!!extant-voices: 4
!!!complete: N
!!!final: C
!!!COM: Mazza, Francesco
!!!OTL: Non è questa la mano
**kern	**text	**kern	**text	**kern	**text	**kern	**text
*part4	*part4	*part3	*part3	*part2	*part2	*part1	*part1
*staff4	*staff4	*staff3	*staff3	*staff2	*staff2	*staff1	*staff1
*I"Basso	*	*I"Quinto	*	*I"Tenore	*	*I"Canto	*
*I'B	*	*I'V	*	*I'T	*	*I'C	*
*oclefF4	*	*oclefC4	*	*oclefC4	*	*oclefC1	*
*clefF4	*	*clefGv2	*	*clefGv2	*	*clefG2	*
*k[]	*	*k[]	*	*k[]	*	*k[]	*
*omet(C)	*	*omet(C)	*	*omet(C)	*	*omet(C)	*
*M4/2	*	*M4/2	*	*M4/2	*	*M4/2	*
=1	=1	=1	=1	=1	=1	=1	=1
0r	.	1r	.	0r	.	4.e	Non
.	.	.	.	.	.	8f	è
.	.	.	.	.	.	4g	que-
.	.	.	.	.	.	8f	-sta
.	.	.	.	.	.	8g	la
.	.	2r	.	.	.	2a	ma-
.	.	4r	.	.	.	2g	-no,
.	.	8c	Non	.	.	.	.
.	.	8B	è	.	.	.	.
=2	=2	=2	=2	=2	=2	=2	=2
0r	.	4A	que-	0r	.	2r	.
.	.	8A	-sta	.	.	.	.
.	.	8G	la	.	.	.	.
.	.	4.F	ma-	.	.	4r	.
.	.	.	.	.	.	8cc	Non
.	.	8G	.	.	.	8b	è
.	.	8AL	.	.	.	4a	que-
.	.	8G	.	.	.	.	.
.	.	8A	.	.	.	8a	-sta
.	.	8BJ	.	.	.	8g	la
.	.	2c	.	.	.	4f	ma-
.	.	.	.	.	.	4e	.
=3	=3	=3	=3	=3	=3	=3	=3
0r	.	2G	-no	0r	.	2d	-no
.	.	4r	.	.	.	2r	.
.	.	4G	Che	.	.	.	.
.	.	4A	tan-	.	.	4r	.
.	.	4G	-ti e	.	.	4g	Che
.	.	4F	sì	.	.	4a	tan-
.	.	4E	mor-	.	.	4g	-ti e
=4	=4	=4	=4	=4	=4	=4	=4
0r	.	4.F	-ta-	0r	.	4f	sì
.	.	.	.	.	.	4f	mor-
.	.	8G	.	.	.	.	.
.	.	2A	.	.	.	2e	-ta-
.	.	4G	-li	.	.	4g	-li
.	.	8c	A-	.	.	8g	A-
.	.	8c	-ven-	.	.	8g	-ven-
.	.	4c	-tò	.	.	4g	-tò
.	.	8c	nel	.	.	8g	nel
.	.	8d	mio	.	.	8f	mio
=5	=5	=5	=5	=5	=5	=5	=5
0r	.	4A	cor	1r	.	4e	cor
.	.	4A	fiam-	.	.	4e	fiam-
.	.	4G	-mel-	.	.	4e	-mel-
.	.	4G	-l'e	.	.	4d	-l'e
.	.	2C	stra-	2r	.	8eL	stra-
.	.	.	.	.	.	8f#iJ	.
.	.	.	.	.	.	2g	.
.	.	2D	-li?	4r	.	.	.
.	.	.	.	4d	Ec-	4f#X	.
=6	=6	=6	=6	=6	=6	=6	=6
4r	.	0r	.	4B	-co	2g	-li?
4G	Ec-	.	.	4B	che	.	.
4E	-co	.	.	4.e	pur	4r	.
4E	che	.	.	.	.	4g	Ec-
.	.	.	.	8d	.	.	.
2A	pur	.	.	8cL	.	4e	-co
.	.	.	.	8BJ	.	.	.
.	.	.	.	2A	.	4e	che
2F	si	.	.	.	.	2a	pur
.	.	.	.	4A	si	.	.
=7	=7	=7	=7	=7	=7	=7	=7
2.G	tro-	4r	.	4.B	tro-	2g	si
.	.	4d	Ec-	.	.	.	.
.	.	.	.	8c	.	.	.
.	.	4B	-co	2d	.	2.g	tro-
4F	.	4B	che	.	.	.	.
4E	.	2.c	pur	1G	-va	.	.
4D	.	.	.	.	.	4f	.
2C	.	.	.	.	.	2e	.
.	.	4c	si	.	.	.	.
=8	=8	=8	=8	=8	=8	=8	=8
2GG	-va	2B	tro-	2G	Nel-	2d	-va
4C	Nel-	2G	-va	4G	-le	4e	Nel-
8C	-le	.	.	4c	mie	8e	-le
8C	mie	.	.	.	.	8e	mie
4C	man	1r	.	4c	man	4g	man
4D	ri-	.	.	4A	ri-	4f	ri-
2E	-stret-	.	.	2G#X	-stret-	2e	-stret-
=9	=9	=9	=9	=9	=9	=9	=9
2AA	-ta	0r	.	2A	-ta	4e	-ta
.	.	.	.	.	.	4a	Né
4A	Né	.	.	2r	.	4e	for-
4E	for-	.	.	.	.	4g	-za
4G	-za	.	.	1r	.	8dL	d'ar-
.	.	.	.	.	.	8e	.
8DL	d'ar-	.	.	.	.	8f	.
8EJ	.	.	.	.	.	8gJ	.
8FL	.	.	.	.	.	2a	.
8G	.	.	.	.	.	.	.
8A	.	.	.	.	.	.	.
8BJ	.	.	.	.	.	.	.
=10	=10	=10	=10	=10	=10	=10	=10
2c	-te	2r	.	4r	.	4g	-te
.	.	.	.	4c	Né	2g	per
2G	per	4r	.	4c	for-	.	.
.	.	4G	Né	4B	-za	4d	fug-
4C	fug-	4.G	for-	4c	d'ar-	8eL	-gir
.	.	.	.	.	.	8fJ	.
4C	-gir	.	.	4G	-te	4.g	.
.	.	8G	-za	.	.	.	.
4.G	.	4G	d'ar-	8GL	per	.	.
.	.	.	.	8A	.	8f	.
.	.	4G	-te	8B	.	[4d	.
8F	.	.	.	8cJ	.	.	.
=11	=11	=11	=11	=11	=11	=11	=11
4.D	.	4A	per	4d	.	8d]L	.
.	.	.	.	.	.	8e	.
.	.	4d	fug-	4A	fug-	8f	.
8E	.	.	.	.	.	8gJ	.
4.F	.	4.c	-gir	4.A	-gir	4a	.
.	.	.	.	.	.	4a	le
8E	.	8d	.	8B	le	.	.
8CL	.	4e	.	2c	gio-	4g	gio-
8D	.	.	.	.	.	.	.
8E	.	4e	le	.	.	4g	-va,
8FJ	.	.	.	.	.	.	.
4G	.	4.d	gio-	4B	.	4.g	per
4GG	le	.	.	[4B	.	.	.
.	.	8c	.	.	.	8d	fug-
=12	=12	=12	=12	=12	=12	=12	=12
4.BB	gio-	2B	.	8B]L	.	4d	-gir
.	.	.	.	8cJ	.	.	.
.	.	.	.	4.d	.	4g	le
8C	.	.	.	.	.	.	.
2D	.	2A	.	.	.	2f#X	gio-
.	.	.	.	8c	.	.	.
.	.	.	.	4A	.	.	.
2GG	-va,	1G	-va,	2B	-va,	1g	-va,
2G	Né	.	.	4r	.	.	.
.	.	.	.	4G	Né	.	.
=13	=13	=13	=13	=13	=13	=13	=13
2F	tien	4r	.	2A	tien	2r	.
.	.	2d	Né	.	.	.	.
2E	fa-	.	.	2G	fa-	2g	Né
.	.	2c	tien	.	.	.	.
4D	-ce o	.	.	4A	-ce o	2fnXi	tien
4D	sa-	4B	fa-	4F	sa-	.	.
8CL	-et-	4c	-ce o	4G	-et-	2e	fa-
8D	.	.	.	.	.	.	.
8E	.	4G	sa-	4G	-ta	.	.
8FJ	.	.	.	.	.	.	.
=14	=14	=14	=14	=14	=14	=14	=14
2G	.	8GL	-et-	1r	.	4d	-ce o
.	.	8A	.	.	.	.	.
.	.	8B	.	.	.	4g	sa-
.	.	8cJ	.	.	.	.	.
2G	-ta	4d	.	.	.	4.g	-et-
.	.	4G	-ta	.	.	.	.
.	.	.	.	.	.	8f	.
2r	.	1r	.	4r	.	8eL	.
.	.	.	.	.	.	8dJ	.
.	.	.	.	4c	Che	4e	.
4r	.	.	.	4B	da	2d	-ta
4G	Che	.	.	4G	me	.	.
=15	=15	=15	=15	=15	=15	=15	=15
4F#X	da	4r	.	4A	la	4r	.
4G	me	4G	Che	4B	di-	4g	Che
4C	la	4G	da	4.c	-fen-	4g	da
4C	di-	4c	me	.	.	4g	me
.	.	.	.	8B	.	.	.
2FnXi	-fen-	4c	la	8AL	.	4a	la
.	.	.	.	8GJ	.	.	.
.	.	4c	di-	4F	.	4a	di-
2C	-da.	2c	-fen-	4G	-da.	2g	-fen-
.	.	.	.	[4c	Giu-	.	.
=16	=16	=16	=16	=16	=16	=16	=16
0r	.	2G	-da.	4c]	.	2g	-da.
.	.	.	.	4B	-st'è	.	.
.	.	2c	Giu-	2A	ben	4r	.
.	.	.	.	.	.	2cc	Giu-
.	.	2d	-st'è	2G	ch'io	.	.
.	.	.	.	.	.	4b	-st'è
.	.	2c	ben	2A	ne	4a	ben
.	.	.	.	.	.	[4a	ch'io
=17	=17	=17	=17	=17	=17	=17	=17
0r	.	4B	ch'io	2E	pren-	4a]	.
.	.	4B	ne	.	.	4g#X	ne
.	.	4c#X	pren-	2A	-da,	4a	pren-
.	.	4c#i	-da,	.	.	4a	-da,
.	.	4r	.	4r	.	4r	.
.	.	4A	A-	4D	A-	4f#X	A-
.	.	4B	-mor,	4G	-mor,	4gnXi	-mor,
.	.	[4B	qual-	[4G	qual-	[4g	qual-
=18	=18	=18	=18	=18	=18	=18	=18
1r	.	8B]	.	8G]	.	8g]	.
.	.	8A	-che	8F#X	-che	8a	-che
.	.	4d	ven-	4G	ven-	4g	ven-
.	.	4d	-det-	4D	-det-	4f#X	-det-
.	.	4d	-ta,	4G	-ta,	4g	-ta,
4G	E	4B	E	1r	.	1r	.
4G	se	4B	se	.	.	.	.
4A	pia-	4cnXi	pia-	.	.	.	.
8E	-ghe	8B	-ghe	.	.	.	.
8F	mi	8A	mi	.	.	.	.
=19	=19	=19	=19	=19	=19	=19	=19
2G	diè,	2B	diè,	4G	E	2r	.
.	.	.	.	4G	se	.	.
2r	.	2r	.	4c	pia-	4g	E
.	.	.	.	8c	-ghe	4g	se
.	.	.	.	8B	mi	.	.
2r	.	2r	.	4A	diè,	4a	pia-
.	.	.	.	4r	.	8g	-ghe
.	.	.	.	.	.	8fnXi	mi
4C	<E	4G	<E	4c	<E	2e	diè,
4C	se	4G	se	4c	se	.	.
=20	=20	=20	=20	=20	=20	=20	=20
4E	pia-	4G	pia-	4B	pia-	4g	<E
8E	-ghe	8G	-ghe	8B	-ghe	4g	se
8F	mi	8A	mi	8A	mi	.	.
4G	diè>	2B	diè>	4d	diè>	4g	pia-
4.G	ba-	.	.	4.B	ba-	8f	-ghe
.	.	.	.	.	.	8e	mi
.	.	2r	.	.	.	4d	diè>
8F	-ci	.	.	8A	-ci	.	.
4E	le	.	.	4G	le	4.g	ba-
4D	ren-	4r	.	4A	ren-	.	.
.	.	.	.	.	.	8f	-ci
4C	-da,	4c	ba-	4c	-da,	4e	le
=21	=21	=21	=21	=21	=21	=21	=21
2r	.	4B	-ci	4r	.	4d	ren-
.	.	4c	le	4c	<ba-	4c	-da,
4r	.	4G	ren-	4B	-ci	4r	.
4c	ba-	4C	-da,	4c	le	4.g	<ba-
4B	-ci	4r	.	4G	ren-	.	.
.	.	.	.	.	.	8f	-ci
4c	le	4c	<ba-	4C	-da,>	4e	le
4G	ren-	4B	-ci	4r	.	4d	ren-
4C	-da,	4c	le	[4c	ba-	4c	-da,>
=22	=22	=22	=22	=22	=22	=22	=22
1r	.	2G	ren-	8c]	.	2r	.
.	.	.	.	8B	-ci	.	.
.	.	.	.	4B	le	.	.
.	.	2C	-da,>	2c	ren-	4g	E
.	.	.	.	.	.	4g	se
4C	E	4G	E	2G	-da,	4cc	pia-
4C	se	4c	se	.	.	8cc	-ghe
.	.	.	.	.	.	8b	mi
4F	pia-	4c	pia-	2r	.	2a	diè
8F	-ghe	8A	-ghe	.	.	.	.
8E	mi	8G	mi	.	.	.	.
=23	=23	=23	=23	=23	=23	=23	=23
2D	diè	2A	diè	4d	E	4r	.
.	.	.	.	4d	se	4.dd	ba-
2G	ba-	4r	.	4B	pia-	.	.
.	.	.	.	.	.	8cc	-ci
.	.	4.d	ba-	8B	-ghe	4b	le
.	.	.	.	8c	mi	.	.
4F#X	-ci	.	.	2d	diè	4a	ren-
.	.	8c	-ci	.	.	.	.
4G	le	4B	le	.	.	4g	-da,
4D	ren-	4A	ren-	4r	.	4r	.
4GG	-da,	4G	-da,	4G	ba-	[4dd	<ba-
=24	=24	=24	=24	=24	=24	=24	=24
2r	.	4r	.	4F#X	-ci	8dd]	.
.	.	.	.	.	.	8cc	-ci
.	.	4.d	ba-	4G	le	4b	le
4r	.	.	.	4D	ren-	4a	ren-
.	.	8c	-ci	.	.	.	.
4G	ba-	4B	le	4G	-da,	4g	-da,>
4F#X	-ci	4A	ren-	4r	.	4r	.
4G	le	4G	-da,	4d	ba-	4.g	ba-
2C	ren-	4r	.	2e	-ci,	.	.
.	.	.	.	.	.	8f	-ci
.	.	4c	<ba-	.	.	4e	le
=25	=25	=25	=25	=25	=25	=25	=25
4G	-da,	4B	-ci	2r	.	4d	ren-
4c	<ba-	4c	le	.	.	4c	-da,
4B	-ci	4G	ren-	4r	.	4r	.
4c	le	4C	-da,>	4c	ba-	2g	<ba-
4G	ren-	1r	.	4B	-ci	.	.
4C	-da,>	.	.	4c	le	4g	-ci
2r	.	.	.	4G	ren-	2g	le
.	.	.	.	8CL	-da,	.	.
.	.	.	.	8DJ	.	.	.
=26	=26	=26	=26	=26	=26	=26	=26
4r	.	4r	.	8EL	.	2e	ren-
.	.	.	.	8FJ	.	.	.
4C	ba-	4.G	ba-	4G	.	.	.
4BB	-ci	.	.	4r	.	4d	-da,>
.	.	8F	-ci	.	.	.	.
4C	le	4E	le	4.G	ba-	4.g	ba-
1GG	ren-	4D	ren-	.	.	.	.
.	.	.	.	8G	-ci	8f	-ci
.	.	4C	.	4G	le	4e	le
.	.	2D	.	2G	ren-	2d	ren-
=27	=27	=27	=27	=27	=27	=27	=27
0Cl	-da.	0Cl	-da.	0Gl	-da.	0el	-da.
==	==	==	==	==	==	==	==
*-	*-	*-	*-	*-	*-	*-	*-
!!!system-decoration: [*]
!!!RDF**kern: i = editorial accidental
!!!RDF**kern: l = terminal long
!!!ENC: Emiliano Ricciardi
!!!END: 2018
!!!EED: Ricciardi, Emiliano
!!!EEV: 2018/09/18
!!!YEC: Copyright 2018 Emiliano Ricciardi, All Rights Reserved
!!!ONB: Translated from MusicXML on 2018/09/18 and edited by Craig Stuart Sapp
!!@@BEGIN:	VERSEDATA
!!@SOLERTI:	47
!!@CATALOGNUM:	Trm0047
!!@LAST_MODIFIED: 2020/07/12
!!@TITLE:		Non è questa la mano
!!@GENRE:		madrigale/ballata
!!@MANUSRC:	Amz, Brn, C, E<sub>1</sub>, F<sub>2</sub>, I<sub>3</sub>, M<sub>7</sub>, P<sub>4</sub>, Tr<sub>2</sub>, V<sub>8</sub>, V<sub>13/E1</sub>
!!@PRINTSRC:	8, 9, 11, 12, 13, 15, 20, 24, 29, 33, 67, 145
!!@@BEGIN:	VERSES
!!@ABOUTIT:	Ballando con la sua donna desidera di fare amorosa vendetta de la sua mano ch’egli teneva stretta.
!!@ABOUTEN:	Dancing with his lady, he desires to take amorous revenge on the hand he held tight.
!!@EDITOR:	Solerti, Angelo
!!@EDITION_TITLE: Le Rime di Torquato Tasso
!!@EDITION_LOC:	Bologna
!!@EDITION_PUB:	Romagnoli-Dall’Acqua
!!@EDITION_DATE:  1898-1902
!!@EDITION_VOL:	2
!!@EDITION_PAGE:  71
!!@TRANSLATOR:	Emiliano Ricciardi and Amyrose McCue Gill
!!@VERSE:
!!	Non è questa la mano
!!	Che tante e sì mortali
!!	Avventò nel mio cor fiammelle e strali?
!!	Ecco che pur si trova
!!	Fra le mie man ristretta
!!	Né forza od arte per fuggir le giova,
!!	Né tien face o saetta
!!	Che da me la difenda.
!!	Giusto è ben ch'io ne prenda,
!!	Amor, qualche vendetta,
!!	E se piaghe mi diè baci le renda.
!!@TVERSE:
!!	Is this not the hand
!!	That so many and truly fatal
!!	Flames and arrows hurled at my heart?
!!	Yet here it is, to be found
!!	Held fast between my hands,
!!	Neither strength nor craft can help it escape,
!!	Nor does it hold a torch or a spear
!!	To defend her against me.
!!	It is just that I take,
!!	Love, some kind of revenge,
!!	And if she gave me wounds, may I give her kisses.
!!@@END:		VERSES
!!@OTHER_CRIT_ED:   Torquato Tasso, <i>Rime d’amore (secondo il codice
!!		Chigiano L VIII 302)</i>, eds. Franco Gavazzeni and
!!		Vercingetorige Martignone, vol. 4 of <i>Edizione
!!		Nazionale delle opere di Torquato Tasso</i>
!!		(Alessandria: Edizioni Dell’Orso, 2004), 34.
!!@ATTRIBUTION_ABOUT:	Secure
!!		<br>
!!		Among other authoritative sources (see Literary
!!		Sources), this poem appears in the autograph Chigiano
!!		L.VIII.302 (Biblioteca Vaticana, Rome), compiled
!!		around 1584&ndash;85.
!!@DATING:	Before 1579
!!		<br>
!!		Although Solerti dates this poem to the early 1560s,
!!		there is no hard evidence to support this dating.
!!		The earliest written testimony of “Non è questa la
!!		mano” is Benedetto Pallavicino’s musical setting,
!!		published in 1579 (Trm0047a).
!!@DEDICATEE:	Bendidio, Lucrezia
!!@DEDICATEE_INFO:
!!		In the autograph Chigiano L.VIII.302 (Biblioteca
!!		Vaticana, Rome), this poem appears among those
!!		addressed to Tasso’s <i>primo amore</i> (first love),
!!		identified as the Ferrarese singer and noblewoman
!!		<a target="_new" href="http://www.treccani.it/enciclopedia/lucrezia-bendidio_%28Dizionario-Biografico%29">Lucrezia Bendidio</a>
!!		(1547&ndash;after 1584). The poem itself, however, does not mention Lucrezia.
!!		As [Anthony Newcomb] {footnote: Anthony Newcomb, “The Ballata and the ‘Free’ Madrigal in
!!		the Second Half of the Sixteenth Century,” Journal
!!		of the American Musicological Society, vol. 63, no.
!!		3 (Fall 2010): 433&ndash;34.} has pointed out, this poem belongs to the
!!		hybrid genre of the ballata-madrigale.  More
!!		specifically, the opening tercet recalls the
!!		<i>ripresa</i> of a ballata, the central section
!!		the <i>piedi</i> (two pairs of <i>settenarii</i>
!!		separated by an <i>endecasillabo</i>), and the final
!!		tercet the <i>volta</i>. The poem is extremely rich
!!		of references to <i>topoi</i> that resonated with
!!		the culture of the time, such as courtly dance and
!!		the female hand–the latter is especially common in
!!		late sixteenth-century lyric poetry (see <i>Rime</i>
!!		315, 571, and 862). Counting 23 settings (see Musical
!!		Settings), “Non è questa la mano” is second only
!!		to “Ardi e gela a tua voglia” (<i>Rime</i> 418),
!!		whose musical fortune, however, is tied to that of
!!		Guarini’s <i>proposta</i> “Ardo sì, ma non t’amo.”
!!@@END:		VERSEDATA
!!@@BEGIN:	SETTING
!!@CATALOGNUM:	Trm0047f
!!@RIMETITLE:	Non è questa la mano
!!@SOLERTI:	47
!!@COMPOSER:	Mazza, Francesco
!!@PRINCEPSTITLE:	Il secondo libro de madrigali a cinque voci
!!@PRINCEPSLOC:	Venetia
!!@NORMLOC:	Venice
!!@NORMPUB:	Vincenzi & Amadino
!!@NORMPUBSHORT:	Vincenzi & Amadino
!!@PRINCEPSPUB:	Vincenci e Amadino
!!@PRINCEPSYEAR:	1584
!!@PRINCEPSRISM:	M 1502
!!@REPRINTS:	
!!@OVOICES:	5
!!@EXTANTVOICES:	4
!!@PARTBOOKS:	
!!@EXTPARTBOOKS:	
!!@OCLEFS:	C1,C4,C4,F4
!!@OMENSURATION:	C
!!@OKEYSIG:	-
!!@FINAL:	C
!!@TIMPEDITOR:	Ricciardi, Emiliano
!!@NOTE:		
!!@@END:		SETTING
